X: 34286
T: Repeal The Poll Tax
R: reel
M: 4/4
K: Amajor
c3 c dcBc|AFEF A2 FA|B3 A cefg|afec BcAB|
c2 ec dcBc|AFEF A2 FA|B3 A ce f/f/e|afec A2 B2|
c2 ec dcBc|AFEF A2 FA|B2 BA cefe|afec BcAB|
c2 ec dcBc|AFEF A2 FA|B2 BA ce f/f/e|afec A2 ce||
f3 f f2 af|feef c2 BA|B3 A cefe|afec B2 ce|
f3 f feaf|feef c2BA|B2 BA cefe|afec A2 ce|
f3 f f2 af|feef c2 BA|B3 A cefe|afec B2 ce|
f3 f feaf|feef c2BA|B2 BA cefe|afec A2 AB||

